X: 1
T:Fisher's Hornpipe
R:Reel
N:Transcribed by Bruce Thomson
M:2/4
K:D
dAFA GBAG|FEDF GBAG|FEDF GBAG|FEDF E4|
dAFA GBAG|FEDF GBAG|FGAB cdec|1 d8:|2 d6 cd||
|:ecAc egfe|fdAd fagf|ecAc efgf|edcBA4|
BGDG BdcB|AFDF AdcA|Bcd BAGFE|D4 D4:||
